icons/glyphs/glyph-matlab.svg

<?xml version="1.0" encoding="UTF-8" standalone="no"?><svg height="16" viewBox="0 0 4.2333332 4.2333332" width="16" xmlns="http://www.w3.org/2000/svg"><sodipodi:namedview/><metadata><rdf:RDF><cc:Work><dc:format>image/svg+xml</dc:format><dc:type/><dc:title/></cc:Work></rdf:RDF></metadata><path d="m10.914062 1.1289062c-.081637-.0050631-.166033.0050768-.242187.03125-.109909.0377575-.160185.0627375-.205078.1054688-.013115.0125102-.065171.0582349-.115235.0996094-.072253.0597165-.165136.1708386-.269531.3144531-.042187.1583055-.065452.3144052-.1113279.4726563-.2153121.7428657-.4718915 1.4843196-.7695312 2.2128906-.2976378.7285708-.636539 1.4440795-1.0175781 2.1367187-.1905223.3463219-.3899929.6882045-.6015626 1.0214844-.2115741.3332788-.4352069.6590236-.6679687.9765625-.2327622.317537-.4763836.6266876-.7304687.9257812-.2540901.2990968-.5174231.5872948-.7929688.8652348-.2225159.224458-.4587254.437411-.6953125.646484.0673663-.000767.1268537.000038.2207031.023438.2449021.06116.3191149.107659.5429688.339843.1735559.180015.2232619.245715.40625.541016.2292057.369895.3206029.543221.40625.765625.0311433.080916.1118336.2627.1796875.404297.0678576.141592.1564127.346523.1972656.455078.0408491.108555.1118519.277842.15625.376953.0444019.099114.1327642.31129.1972656.472656.0645052.161363.1448072.353509.1777344.425782.042531.093361.0678053.130927.0898437.130859.0398627-.000138.2920191-.059731.4277344-.101563.1021569-.031521.4171964-.18474.6777344-.330078.0707981-.039477.2045818-.132374.2988281-.207031.1964145-.155584.7317079-.632554.7871094-.701172.0204472-.025285.1420969-.161837.2695313-.302734.1274343-.140905.3273172-.366223.4453122-.501953.117993-.135735.272604-.313712.34375-.394532.071139-.080817.207392-.23829.302735-.351562.236659-.281182.750817-.783726.958984-.9375.379524-.280354.6268-.402586.931641-.460938.22721-.043491.413048-.025774.673828.0625.212621.071985.276887.102499.4375.210938.066073.044621.141637.093444.167969.109375.125419.075829.512123.408889.783203.671875.591294.573641 1.178866 1.067222 1.220703 1.02539.018141-.018141-.044541-.176381-.234375-.58789-.063148-.136872-.146892-.338711-.1875-.447266-.0406-.108552-.129421-.327808-.197266-.488281-.067846-.160471-.156561-.38477-.197265-.498047-.040682-.113272-.129577-.337573-.197266-.498047-.067693-.1604709-.16456-.3990974-.214844-.5312498-.050288-.1321511-.145166-.3789103-.210937-.5488281-.13745-.3550469-.446571-1.2430363-.921875-2.6445312-.473439-1.3960279-.704121-2.0457623-.97461-2.7460938-.230193-.595985-.660283-1.4792087-.890625-1.8300781-.161884-.2466104-.474909-.5717758-.628906-.6542969-.065435-.0350608-.144925-.0554837-.226563-.0605469zm-1.5019526.2636719c-.1233071.1696177-.2660299.3875613-.4394532.6816407-.0974097.1651918-.2317982.3863944-.2988281.4902343-.0670223.1038312-.1447266.2267528-.171875.2734375-.10992.1890029-.4744758.6860406-.7617187 1.0390625-.2431748.2988624-.7027691.7260315-.8769532.8144531-.033033.0167812-.0911449.0507811-.1289062.0761719-.084703.0569386-.2430207.1196648-.453125.1796875-.1776491.0507515-.5095453.2147116-.6523438.3222656-.2443426.1840366-.7918105.7732232-1.0195312 1.0976563-.0354142.0504643-.0900487.1205306-.1210938.1542969-.0309921.0337512-.0713467.0809094-.0898437.1054687-.020674.0274772-.0898859.0670016-.1796875.1035157-.0802394.0326551-.2138757.0893959-.2988281.1269531-.08496.0375685-.3204878.1329809-.5234375.2109375-.2029493.0779565-.4516639.1790585-.5507813.2246094-.0991181.0455508-.2408875.1049951-.3164062.1328124-.2098583.0773141-.6588234.2575395-.7285157.2929688-.0341291.0173858-.3011162.1256618-.59375.2402344-.29262232.1145726-.58935506.2364717-.6601562.2695312-.07079433.0331087-.22266506.0973674-.3359375.1425782-.27203528.1086009-.27351638.1191191-.05078125.265625.07755591.0510198.348851.2472287.61523437.4433593.05561198.0409399.15246265.1096502.21484376.1523438.06239242.0427011.18765932.1313091.27734372.1972656.0896731.0659565.1945615.1402166.234375.1660156.0657789.0426104.3367326.2370576.5957031.4277349.0556082.040939.1524627.109589.2148438.152343.1056983.072439.3381814.239083.5761719.414063.1931452.142004.3886685.271484.4101562.271484.0220347 0 .2992161-.107628.3515625-.136719.0651099-.036132.2072102-.0733.3203125-.082031.0183307-.001537.0377779.008077.0546875.007813.2365871-.209073.4708442-.422028.6933594-.646485.2755427-.2779387.5408333-.5661408.7949219-.8652341.2540863-.2990967.4977061-.6082424.7304687-.9257813.2327622-.3175408.4544418-.6432826.6660156-.9765625.2115705-.3332749.4129957-.6751609.6035157-1.0214843.3810391-.6926355.7199422-1.4081517 1.0175781-2.1367188.2976416-.7285751.5542206-1.4700252.7695312-2.2128906.045876-.1582526.0691638-.3143485.1113282-.4726563z" fill="#d0d0d0" transform="scale(.26458333)"/></svg>

<?xml version="1.0" encoding="UTF-8" standalone="no"?>
<!-- Created with Inkscape (http://www.inkscape.org/) -->

<svg
   xmlns:dc="http://purl.org/dc/elements/1.1/"
   xmlns:cc="http://creativecommons.org/ns#"
   xmlns:rdf="http://www.w3.org/1999/02/22-rdf-syntax-ns#"
   xmlns:svg="http://www.w3.org/2000/svg"
   xmlns="http://www.w3.org/2000/svg"
   xmlns:sodipodi="http://sodipodi.sourceforge.net/DTD/sodipodi-0.dtd"
   xmlns:inkscape="http://www.inkscape.org/namespaces/inkscape"
   width="16"
   height="16"
   viewBox="0 0 4.2333332 4.2333332"
   version="1.1"
   id="svg8"
   inkscape:version="0.92+devel (f96dc7e339, 2017-07-28, custom)"
   sodipodi:docname="glyph-matlab.svg">
  <defs
     id="defs2" />
  <sodipodi:namedview
     id="base"
     pagecolor="#002466"
     bordercolor="#ffffff"
     borderopacity="0.38039216"
     inkscape:pageopacity="1"
     inkscape:pageshadow="2"
     inkscape:zoom="18.208"
     inkscape:cx="10.094581"
     inkscape:cy="7.9162778"
     inkscape:document-units="px"
     inkscape:current-layer="svg8"
     inkscape:document-rotation="0"
     showgrid="false"
     inkscape:showpageshadow="false"
     borderlayer="true"
     inkscape:window-width="1920"
     inkscape:window-height="1051"
     inkscape:window-x="0"
     inkscape:window-y="0"
     inkscape:window-maximized="1"
     units="px" />
  <metadata
     id="metadata5">
    <rdf:RDF>
      <cc:Work
         rdf:about="">
        <dc:format>image/svg+xml</dc:format>
        <dc:type
           rdf:resource="http://purl.org/dc/dcmitype/StillImage" />
        <dc:title />
      </cc:Work>
    </rdf:RDF>
  </metadata>
  <path
     style="opacity:1;fill:#d0d0d0;stroke-width:1"
     d="M 10.914062 1.1289062 C 10.832425 1.1238431 10.748029 1.133983 10.671875 1.1601562 C 10.561966 1.1979137 10.51169 1.2228937 10.466797 1.265625 C 10.453682 1.2781352 10.401626 1.3238599 10.351562 1.3652344 C 10.279309 1.4249509 10.186426 1.536073 10.082031 1.6796875 C 10.039844 1.837993 10.016579 1.9940927 9.9707031 2.1523438 C 9.755391 2.8952095 9.4988116 3.6366634 9.2011719 4.3652344 C 8.9035341 5.0938052 8.5646329 5.8093139 8.1835938 6.5019531 C 7.9930715 6.848275 7.7936009 7.1901576 7.5820312 7.5234375 C 7.3704571 7.8567163 7.1468243 8.1824611 6.9140625 8.5 C 6.6813003 8.817537 6.4376789 9.1266876 6.1835938 9.4257812 C 5.9295037 9.724878 5.6661707 10.013076 5.390625 10.291016 C 5.1681091 10.515474 4.9318996 10.728427 4.6953125 10.9375 C 4.7626788 10.936733 4.8221662 10.937538 4.9160156 10.960938 C 5.1609177 11.022098 5.2351305 11.068597 5.4589844 11.300781 C 5.6325403 11.480796 5.6822463 11.546496 5.8652344 11.841797 C 6.0944401 12.211692 6.1858373 12.385018 6.2714844 12.607422 C 6.3026277 12.688338 6.383318 12.870122 6.4511719 13.011719 C 6.5190295 13.153311 6.6075846 13.358242 6.6484375 13.466797 C 6.6892866 13.575352 6.7602894 13.744639 6.8046875 13.84375 C 6.8490894 13.942864 6.9374517 14.15504 7.0019531 14.316406 C 7.0664583 14.477769 7.1467603 14.669915 7.1796875 14.742188 C 7.2222185 14.835549 7.2474928 14.873115 7.2695312 14.873047 C 7.3093939 14.872909 7.5615503 14.813316 7.6972656 14.771484 C 7.7994225 14.739963 8.114462 14.586744 8.375 14.441406 C 8.4457981 14.401929 8.5795818 14.309032 8.6738281 14.234375 C 8.8702426 14.078791 9.405536 13.601821 9.4609375 13.533203 C 9.4813847 13.507918 9.6030344 13.371366 9.7304688 13.230469 C 9.8579031 13.089564 10.057786 12.864246 10.175781 12.728516 C 10.293774 12.592781 10.448385 12.414804 10.519531 12.333984 C 10.59067 12.253167 10.726923 12.095694 10.822266 11.982422 C 11.058925 11.70124 11.573083 11.198696 11.78125 11.044922 C 12.160774 10.764568 12.40805 10.642336 12.712891 10.583984 C 12.940101 10.540493 13.125939 10.55821 13.386719 10.646484 C 13.59934 10.718469 13.663606 10.748983 13.824219 10.857422 C 13.890292 10.902043 13.965856 10.950866 13.992188 10.966797 C 14.117607 11.042626 14.504311 11.375686 14.775391 11.638672 C 15.366685 12.212313 15.954257 12.705894 15.996094 12.664062 C 16.014235 12.645921 15.951553 12.487681 15.761719 12.076172 C 15.698571 11.9393 15.614827 11.737461 15.574219 11.628906 C 15.533619 11.520354 15.444798 11.301098 15.376953 11.140625 C 15.309107 10.980154 15.220392 10.755855 15.179688 10.642578 C 15.139006 10.529306 15.050111 10.305005 14.982422 10.144531 C 14.914729 9.9840601 14.817862 9.7454336 14.767578 9.6132812 C 14.71729 9.4811301 14.622412 9.2343709 14.556641 9.0644531 C 14.419191 8.7094062 14.11007 7.8214168 13.634766 6.4199219 C 13.161327 5.023894 12.930645 4.3741596 12.660156 3.6738281 C 12.429963 3.0778431 11.999873 2.1946194 11.769531 1.84375 C 11.607647 1.5971396 11.294622 1.2719742 11.140625 1.1894531 C 11.07519 1.1543923 10.9957 1.1339694 10.914062 1.1289062 z M 9.4121094 1.3925781 C 9.2888023 1.5621958 9.1460795 1.7801394 8.9726562 2.0742188 C 8.8752465 2.2394106 8.740858 2.4606132 8.6738281 2.5644531 C 8.6068058 2.6682843 8.5291015 2.7912059 8.5019531 2.8378906 C 8.3920331 3.0268935 8.0274773 3.5239312 7.7402344 3.8769531 C 7.4970596 4.1758155 7.0374653 4.6029846 6.8632812 4.6914062 C 6.8302482 4.7081874 6.7721363 4.7421873 6.734375 4.7675781 C 6.649672 4.8245167 6.4913543 4.8872429 6.28125 4.9472656 C 6.1036009 4.9980171 5.7717047 5.1619772 5.6289062 5.2695312 C 5.3845636 5.4535678 4.8370957 6.0427544 4.609375 6.3671875 C 4.5739608 6.4176518 4.5193263 6.4877181 4.4882812 6.5214844 C 4.4572891 6.5552356 4.4169345 6.6023938 4.3984375 6.6269531 C 4.3777635 6.6544303 4.3085516 6.6939547 4.21875 6.7304688 C 4.1385106 6.7631239 4.0048743 6.8198647 3.9199219 6.8574219 C 3.8349619 6.8949904 3.5994341 6.9904028 3.3964844 7.0683594 C 3.1935351 7.1463159 2.9448205 7.2474179 2.8457031 7.2929688 C 2.746585 7.3385196 2.6048156 7.3979639 2.5292969 7.4257812 C 2.3194386 7.5030953 1.8704735 7.6833207 1.8007812 7.71875 C 1.7666521 7.7361358 1.499665 7.8444118 1.2070312 7.9589844 C 0.91440888 8.073557 0.61767614 8.1954561 0.546875 8.2285156 C 0.47608067 8.2616243 0.32420994 8.325883 0.2109375 8.3710938 C -0.061097784 8.4796947 -0.062578875 8.4902129 0.16015625 8.6367188 C 0.23771216 8.6877386 0.50900725 8.8839475 0.77539062 9.0800781 C 0.8310026 9.121018 0.92785327 9.1897283 0.99023438 9.2324219 C 1.0526268 9.275123 1.1778937 9.363731 1.2675781 9.4296875 C 1.3572512 9.495644 1.4621396 9.5699041 1.5019531 9.5957031 C 1.567732 9.6383135 1.8386857 9.8327607 2.0976562 10.023438 C 2.1532644 10.064377 2.2501189 10.133027 2.3125 10.175781 C 2.4181983 10.24822 2.6506814 10.414864 2.8886719 10.589844 C 3.0818171 10.731848 3.2773404 10.861328 3.2988281 10.861328 C 3.3208628 10.861328 3.5980442 10.7537 3.6503906 10.724609 C 3.7155005 10.688477 3.8576008 10.651309 3.9707031 10.642578 C 3.9890338 10.641041 4.008481 10.650655 4.0253906 10.650391 C 4.2619777 10.441318 4.4962348 10.228363 4.71875 10.003906 C 4.9942927 9.7259673 5.2595833 9.4377652 5.5136719 9.1386719 C 5.7677582 8.8395752 6.011378 8.5304295 6.2441406 8.2128906 C 6.4769028 7.8953498 6.6985824 7.569608 6.9101562 7.2363281 C 7.1217267 6.9030532 7.3231519 6.5611672 7.5136719 6.2148438 C 7.894711 5.5222083 8.2336141 4.8066921 8.53125 4.078125 C 8.8288916 3.3495499 9.0854706 2.6080998 9.3007812 1.8652344 C 9.3466572 1.7069818 9.369945 1.5508859 9.4121094 1.3925781 z "
     transform="scale(0.26458333)"
     id="path44" />
</svg>
